logos/synchron.svg

<svg class="wordmark dark" width="174" height="43" viewBox="0 0 174 43" fill="none" xmlns="http://www.w3.org/2000/svg">
<path fill-rule="evenodd" clip-rule="evenodd" d="M90.332 0H93.6388V11.6806H93.8926C93.8926 11.6806 95.4191 8.63155 99.741 8.63155H103.048C106.862 8.63155 109.661 11.4268 109.661 15.2412V34.3289H106.355V15.511C106.355 13.2232 105.082 11.9505 102.794 11.9505H98.9797C95.6729 11.9505 93.6388 13.9885 93.6388 17.2913V34.3289H90.332V0ZM45.2676 9.15545H47.5554L48.3327 11.6809H48.5865C48.5865 11.6809 50.109 8.63184 54.4348 8.63184H58.2491C62.0635 8.63184 64.8587 11.4271 64.8587 15.2414V34.3291H61.556V15.5113C61.556 13.2235 60.2832 11.9507 57.9954 11.9507H53.9273C50.6205 11.9507 48.5865 13.9888 48.5865 17.2916V34.3291H45.2797L45.2676 9.15545ZM11.443 31.0141H0V34.329H11.6766C15.7487 34.329 18.2902 31.7874 18.2902 27.7194V26.9581C18.2902 23.905 16.0024 21.6173 12.4418 20.852L6.59349 19.5832C4.04793 19.0234 3.28668 18.0366 3.28668 16.0227C3.28668 13.7308 4.55543 12.4621 6.84724 12.4621H16.5139L17.5491 11.4431V9.15527H6.61363C2.54154 9.15527 0 11.6807 0 15.7689V16.514C0 19.5832 2.03403 21.871 5.5946 22.6323L11.443 23.893C13.9885 24.4528 15.0035 25.4396 15.0035 27.4535C15.0035 29.7413 13.7307 31.0141 11.443 31.0141ZM25.683 39.6698H23.3952V42.9847H25.683C29.4973 42.9847 31.5514 40.9506 33.5653 35.1023L41.9593 10.9356V9.15527H38.9062L32.2966 29.4996H32.0428L23.9027 9.15527H20.8496V11L30.5163 33.8335V34.329L30.2626 35.0942C29.0905 38.6548 28.0755 39.6698 25.683 39.6698ZM68.8184 15.7689V27.7194C68.8184 31.5337 71.6136 34.329 75.428 34.329H86.3634V31.0262H75.6817C73.3939 31.0262 72.1211 29.7534 72.1211 27.4656V16.0227C72.1211 13.7308 73.3939 12.4621 75.6817 12.4621H85.3484L86.3634 11.4431V9.15527H75.428C71.6136 9.15527 68.8184 11.9506 68.8184 15.7689ZM115.917 9.15545H113.629V34.313H116.936V17.2755C116.921 16.5705 117.05 15.87 117.313 15.2158C117.576 14.5617 117.969 13.9674 118.467 13.4687C118.965 12.9699 119.559 12.5769 120.213 12.3133C120.867 12.0497 121.568 11.9209 122.273 11.9346H126.852V8.63184H122.784C118.458 8.63184 116.936 11.6809 116.936 11.6809H116.678L115.917 9.15545ZM129.851 28.227V15.2576C129.851 11.4432 132.65 8.64795 136.464 8.64795H143.839C147.654 8.64795 150.449 11.4432 150.449 15.2576V28.227C150.449 32.0414 147.654 34.8407 143.839 34.8407H136.464C135.588 34.8681 134.716 34.7157 133.901 34.393C133.087 34.0704 132.347 33.5842 131.727 32.9645C131.107 32.3448 130.621 31.6048 130.298 30.79C129.976 29.9752 129.823 29.103 129.851 28.227ZM143.586 31.5339C145.873 31.5339 147.142 30.2611 147.142 27.9733V15.5113C147.142 13.2235 145.873 11.9507 143.586 11.9507H136.718C134.43 11.9507 133.158 13.2235 133.158 15.5113V27.9733C133.158 30.2611 134.43 31.5339 136.718 31.5339H143.586ZM156.71 9.15545H154.418L154.434 34.3291H157.741V17.2916C157.741 13.9888 159.775 11.9507 163.082 11.9507H167.15C169.442 11.9507 170.71 13.2235 170.71 15.5113V34.3291H174.017V15.2414C174.017 11.4271 171.222 8.63184 167.404 8.63184H163.589C159.267 8.63184 157.741 11.6809 157.741 11.6809H157.487L156.71 9.15545Z" fill="#0C321D"></path>
</svg>

<svg class="wordmark dark" width="174" height="43" fill="none" xmlns="http://www.w3.org/2000/svg"><path fill-rule="evenodd" clip-rule="evenodd" d="M90.332 0h3.307v11.68h.254s1.526-3.048 5.848-3.048h3.307c3.814 0 6.613 2.795 6.613 6.61v19.087h-3.306V15.51c0-2.288-1.273-3.56-3.561-3.56H98.98c-3.307 0-5.341 2.037-5.341 5.34V34.33h-3.307V0zM45.268 9.155h2.287l.778 2.526h.254s1.522-3.05 5.848-3.05h3.814c3.814 0 6.61 2.796 6.61 6.61V34.33h-3.303V15.511c0-2.287-1.273-3.56-3.56-3.56h-4.069c-3.306 0-5.34 2.038-5.34 5.34V34.33H45.28l-.012-25.174zm-33.825 21.86H0v3.314h11.677c4.072 0 6.613-2.542 6.613-6.61v-.76c0-3.054-2.288-5.342-5.848-6.107l-5.849-1.269c-2.545-.56-3.306-1.546-3.306-3.56 0-2.292 1.268-3.56 3.56-3.56h9.667l1.035-1.02V9.155H6.614C2.542 9.155 0 11.681 0 15.77v.745c0 3.07 2.034 5.357 5.595 6.118l5.848 1.261c2.546.56 3.56 1.547 3.56 3.56 0 2.288-1.272 3.561-3.56 3.561zm14.24 8.655h-2.288v3.315h2.288c3.814 0 5.868-2.034 7.882-7.883l8.394-24.166v-1.78h-3.053L32.296 29.5h-.253l-8.14-20.345H20.85V11l9.666 22.834v.495l-.253.765c-1.173 3.56-2.188 4.576-4.58 4.576zm43.135-23.901v11.95c0 3.815 2.796 6.61 6.61 6.61h10.935v-3.303H75.682c-2.288 0-3.56-1.273-3.56-3.56V16.023c0-2.292 1.272-3.56 3.56-3.56h9.666l1.015-1.02V9.155H75.428c-3.814 0-6.61 2.796-6.61 6.614zm47.099-6.614h-2.288v25.158h3.307V17.275a5.225 5.225 0 0 1 1.531-3.806 5.23 5.23 0 0 1 3.806-1.534h4.579V8.632h-4.068c-4.326 0-5.848 3.049-5.848 3.049h-.258l-.761-2.526zm13.934 19.072v-12.97c0-3.814 2.799-6.609 6.613-6.609h7.375c3.815 0 6.61 2.795 6.61 6.61v12.969c0 3.814-2.795 6.614-6.61 6.614h-7.375a6.416 6.416 0 0 1-6.613-6.614zm13.735 3.307c2.287 0 3.556-1.273 3.556-3.56V15.51c0-2.287-1.269-3.56-3.556-3.56h-6.868c-2.288 0-3.56 1.272-3.56 3.56v12.462c0 2.288 1.272 3.56 3.56 3.56h6.868zM156.71 9.155h-2.292l.016 25.174h3.307V17.292c0-3.303 2.034-5.341 5.341-5.341h4.068c2.292 0 3.56 1.272 3.56 3.56V34.33h3.307V15.241c0-3.814-2.795-6.61-6.613-6.61h-3.815c-4.322 0-5.848 3.05-5.848 3.05h-.254l-.777-2.526z" fill="#0C321D"/></svg>
